src/extras-openmoji/healthcare/E30B.svg

<svg id="emoji" x="0" y="0" viewBox="0 0 72 72" version="1.1" xmlns="http://www.w3.org/2000/svg">
  <g id="grid">
    <path fill="#B3B3B3" d="M68,4v64H4V4H68 M72,0H0v72h72V0z"/>
    <path fill="none" stroke="#00A5FF" stroke-miterlimit="10" stroke-width="0.1" d="M12.923,10.9583h46.1539 c1.0621,0,1.9231,0.861,1.9231,1.9231v0v46.1538c0,1.0621-0.861,1.9231-1.9231,1.9231H12.9231 c-1.0621,0-1.9231-0.861-1.9231-1.9231l0,0V12.8813C11,11.8193,11.861,10.9583,12.923,10.9583L12.923,10.9583z"/>
    <path fill="none" stroke="#00A5FF" stroke-miterlimit="10" stroke-width="0.1" d="M18.2537,4h35.4926C54.991,4,56,5.009,56,6.2537 v59.4926C56,66.991,54.991,68,53.7463,68H18.2537C17.009,68,16,66.991,16,65.7463V6.2537C16,5.009,17.009,4,18.2537,4z"/>
    <path fill="none" stroke="#00A5FF" stroke-miterlimit="10" stroke-width="0.1" d="M68,18.2537v35.4926 C68,54.991,66.991,56,65.7463,56H6.2537C5.009,56,4,54.991,4,53.7463V18.2537C4,17.009,5.009,16,6.2537,16h59.4926 C66.991,16,68,17.009,68,18.2537z"/>
    <circle cx="36" cy="36" r="29" fill="none" stroke="#00A5FF" stroke-miterlimit="10" stroke-width="0.1"/>
  </g>
  <g id="color">
    <path fill="#A57939" d="M22.2499,14.3071h27.5003c1.8029,0,3.2644,1.4615,3.2644,3.2644V57.651 c0,1.8029-1.4615,3.2644-3.2644,3.2644H22.2499c-1.8029,0-3.2644-1.4615-3.2644-3.2644V17.5715 C18.9855,15.7686,20.447,14.3071,22.2499,14.3071z"/>
    <rect x="23.3085" y="16.5645" width="25.3953" height="38.9302" fill="#FFFFFF"/>
    <rect x="26.1942" y="13.2157" width="19.6239" height="5.4611" fill="#9B9B9A"/>
    <polygon fill="#D22F27" points="26.204,24.599 28.087,24.599 28.087,26.483 29.413,26.483 29.413,24.599 31.297,24.599 31.297,23.273 29.413,23.273 29.413,21.389 28.087,21.389 28.087,23.273 26.204,23.273"/>
  </g>
  <g id="line">
    <path fill="none" stroke="#000000" stroke-linecap="round" stroke-linejoin="round" stroke-width="2" d="M45.8181,14.3071h3.9321 c1.8029,0,3.2644,1.4615,3.2644,3.2644V57.651c0,1.8029-1.4615,3.2644-3.2644,3.2644H22.2499 c-1.8029,0-3.2644-1.4615-3.2644-3.2644V17.5715c0-1.8029,1.4615-3.2644,3.2644-3.2644h3.9443"/>
    <polyline fill="none" stroke="#000000" stroke-linecap="round" stroke-linejoin="round" stroke-width="2" points="45.82,16.56 48.7,16.56 48.7,55.49 23.31,55.49 23.31,16.56 26.19,16.56"/>
    <rect x="26.1942" y="13.2157" width="19.6239" height="5.4611" fill="none" stroke="#000000" stroke-linecap="round" stroke-linejoin="round" stroke-width="2"/>
    <line x1="26.1942" x2="31.2155" y1="32.9831" y2="32.9831" fill="none" stroke="#000000" stroke-linecap="round" stroke-linejoin="round" stroke-width="1.5"/>
    <line x1="26.1942" x2="42.7503" y1="38.6575" y2="38.6575" fill="none" stroke="#000000" stroke-linecap="round" stroke-linejoin="round" stroke-width="1.5"/>
    <line x1="26.1942" x2="39.7736" y1="42.0063" y2="42.0063" fill="none" stroke="#000000" stroke-linecap="round" stroke-linejoin="round" stroke-width="1.5"/>
    <line x1="26.1942" x2="42.7503" y1="45.3552" y2="45.3552" fill="none" stroke="#000000" stroke-linecap="round" stroke-linejoin="round" stroke-width="1.5"/>
    <line x1="26.1942" x2="39.7736" y1="48.704" y2="48.704" fill="none" stroke="#000000" stroke-linecap="round" stroke-linejoin="round" stroke-width="1.5"/>
    <path d="M29.4134,21.3892v1.8837h1.8837v1.3261h-1.8837v1.8838h-1.3261V24.599h-1.8837v-1.3261h1.8837v-1.8837H29.4134 M29.4134,20.3892h-1.3261c-0.5523,0-1,0.4477-1,1v0.8837h-0.8837c-0.5523,0-1,0.4477-1,1v1.3261c0,0.5523,0.4477,1,1,1h0.8837 v0.8838c0,0.5523,0.4477,1,1,1h1.3261c0.5523,0,1-0.4477,1-1V25.599h0.8837c0.5523,0,1-0.4477,1-1v-1.3261c0-0.5523-0.4477-1-1-1 h-0.8837v-0.8837C30.4134,20.8369,29.9657,20.3892,29.4134,20.3892z"/>
  </g>
</svg>

<svg id="emoji" viewBox="0 0 72 72" xmlns="http://www.w3.org/2000/svg">
  <g id="grid">
    <path fill="#b3b3b3" d="M68,4V68H4V4H68m4-4H0V72H72V0Z"/>
    <path fill="none" stroke="#00a5ff" stroke-miterlimit="10" stroke-width="0.1" d="M12.923,10.9583H59.0769A1.9231,1.9231,0,0,1,61,12.8814V59.0352a1.9231,1.9231,0,0,1-1.9231,1.9231H12.9231A1.9231,1.9231,0,0,1,11,59.0352V12.8813A1.923,1.923,0,0,1,12.923,10.9583Z"/>
    <rect x="16" y="4" rx="2.2537" width="40" height="64" fill="none" stroke="#00a5ff" stroke-miterlimit="10" stroke-width="0.1"/>
    <rect x="16" y="4" rx="2.2537" width="40" height="64" transform="translate(72) rotate(90)" fill="none" stroke="#00a5ff" stroke-miterlimit="10" stroke-width="0.1"/>
    <circle cx="36" cy="36" r="29" fill="none" stroke="#00a5ff" stroke-miterlimit="10" stroke-width="0.1"/>
  </g>
  <g id="color">
    <rect x="18.9855" y="14.3071" rx="3.2644" width="34.0291" height="46.6083" fill="#a57939"/>
    <rect x="23.3085" y="16.5645" width="25.3953" height="38.9302" fill="#fff"/>
    <rect x="26.1942" y="13.2157" width="19.6239" height="5.4611" fill="#9b9b9a"/>
    <polygon fill="#d22f27" points="26.204 24.599 28.087 24.599 28.087 26.483 29.413 26.483 29.413 24.599 31.297 24.599 31.297 23.273 29.413 23.273 29.413 21.389 28.087 21.389 28.087 23.273 26.204 23.273 26.204 24.599"/>
  </g>
  <g id="line">
    <rect x="18.9855" y="14.3071" rx="3.2644" width="34.0291" height="46.6083" fill="none" stroke="#000" stroke-linecap="round" stroke-linejoin="round" stroke-width="2"/>
    <polyline fill="none" stroke="#000" stroke-linecap="round" stroke-linejoin="round" stroke-width="2" points="45.82 16.56 48.7 16.56 48.7 55.49 23.31 55.49 23.31 16.56 26.19 16.56"/>
    <rect x="26.1942" y="13.2157" width="19.6239" height="5.4611" fill="none" stroke="#000" stroke-linecap="round" stroke-linejoin="round" stroke-width="2"/>
    <line x1="26.1942" x2="31.2155" y1="32.9831" y2="32.9831" fill="none" stroke="#000" stroke-linecap="round" stroke-linejoin="round" stroke-width="1.5"/>
    <line x1="26.1942" x2="42.7503" y1="38.6575" y2="38.6575" fill="none" stroke="#000" stroke-linecap="round" stroke-linejoin="round" stroke-width="1.5"/>
    <line x1="26.1942" x2="39.7736" y1="42.0063" y2="42.0063" fill="none" stroke="#000" stroke-linecap="round" stroke-linejoin="round" stroke-width="1.5"/>
    <line x1="26.1942" x2="42.7503" y1="45.3552" y2="45.3552" fill="none" stroke="#000" stroke-linecap="round" stroke-linejoin="round" stroke-width="1.5"/>
    <line x1="26.1942" x2="39.7736" y1="48.704" y2="48.704" fill="none" stroke="#000" stroke-linecap="round" stroke-linejoin="round" stroke-width="1.5"/>
    <path d="M29.4134,21.3892v1.8837h1.8837V24.599H29.4134v1.8838H28.0873V24.599H26.2036V23.2729h1.8837V21.3892h1.3261m0-1H28.0873a1,1,0,0,0-1,1v.8837h-.8837a1,1,0,0,0-1,1V24.599a1,1,0,0,0,1,1h.8837v.8838a1,1,0,0,0,1,1h1.3261a1,1,0,0,0,1-1V25.599h.8837a1,1,0,0,0,1-1V23.2729a1,1,0,0,0-1-1h-.8837v-.8837a1,1,0,0,0-1-1Z"/>
  </g>
</svg>
